X: 42293
T: Wedderburn House
R: reel
M: 4/4
K: Dmixolydian
d2AG FDD2|c2GF ECC2|B2AG FDDF|1 EDCE D2Ac:|2 EDCE D2Ac||
fede fgaf|ec~c2 GcEc|fede fgaf|egce d/d/d de|
fede fgaf|ec~c2 GcEc|DEFD EFGB|AFGE D2Ac|

